assets/youtubegaming/mono.svg

<svg viewBox="0 0 24 24" xmlns="http://www.w3.org/2000/svg"><path d="m24 13.2v-6l-6-3.6-6 3.6-6-3.6-6 3.6v6l12 7.2zm-15.6-2.4h-2.4v2.4h-1.2v-2.4h-2.4v-1.2h2.4v-2.4h1.2v2.4h2.4zm7.2 2.4a1.2 1.2 0 0 1 -1.2-1.2c0-.66.54-1.2 1.2-1.2s1.2.54 1.2 1.2-.54 1.2-1.2 1.2zm3.6-2.4a1.2 1.2 0 0 1 -1.2-1.2c0-.66.54-1.2 1.2-1.2s1.2.54 1.2 1.2-.54 1.2-1.2 1.2z"/></svg>

<svg xmlns="http://www.w3.org/2000/svg" viewBox="0 0 24 24"><path d="M24 13.2v-6l-6-3.6-6 3.6-6-3.6-6 3.6v6l12 7.2zM8.4 10.8H6v2.4H4.8v-2.4H2.4V9.6h2.4V7.2H6v2.4h2.4zm7.2 2.4a1.2 1.2 0 0 1-1.2-1.2c0-.66.54-1.2 1.2-1.2s1.2.54 1.2 1.2-.54 1.2-1.2 1.2m3.6-2.4A1.2 1.2 0 0 1 18 9.6c0-.66.54-1.2 1.2-1.2s1.2.54 1.2 1.2-.54 1.2-1.2 1.2"/></svg>
